!!!!SEGMENT: pl-sa--29-a-i-29--006_konigsperger-marianus--vesperae-ex-d-lauda-jerusalem.krn
!!!cenid: 17xx:543
!!!COM: Königsperger, Marianus
!!!COM-rismID: pe367346
!!!CDT: 1708/12/02-1769/10/09
!!!CNT: German
!!!OPR: Vesperae ex D
!!!OTL: Lauda Jerusalem
!!!OMV: 006
!!!PDT:
!!!AGN: Sacred; Vespers
!!!SMS-siglum: PL-SA
!!!SMS-shelfmark: 29/A I 29
!!!SMS-shelfwork: 001-006 M
!!!SMS-variant:
!!!SMS-altvar:
!!!NIFC-rismSourceID: 1001068253
!!!NIFC-rismChildID: 1001068253
!!!NIFC-islandoraID:
!!!URL-pdf-islandora:
!!!URL-scan: https://bc.bdsandomierz.pl/dlibra/publication/1262/edition/1230/content @EN{Scan in the Sandomierz Diocese Digital Library} @PL{Skany w portalu Cyfrowa Biblioteka Diecezjalna w Sandomierzu}
!!!ONB-nifc: UWAGA: części Vesperae: Domine ad adjuvandum, Dixit Dominus, Laudate pueri, Laetatus sum, Nisi Dominus, Lauda Jerusalem, Magnificat
!!!AIN: 3 empty 1 organ 2 violn 1 vox
!!!key:
**kern	**fba	**kern	**dynam	**kern	**kern	**text	**kern	**text	**kern	**kern
*part7	*	*part6	*part6	*part5	*part4	*part4	*part3	*part3	*part2	*part1
*staff7	*	*staff6	*	*staff5	*staff4	*staff4	*staff3	*staff3	*staff2	*staff1
*Iorgan	*	*Ivioln	*	*Ivioln	*Iempty	*	*Ivox	*	*Iempty	*Iempty
*I"Organo	*	*I"Violino Secundo	*	*I"Violino Primo	*I"Baſso.	*	*I"Canto	*	*I"Clarino 2do Ex D.	*I"Clarino 1mo Ex D.
*I'org	*	*I'vl 2	*	*I'vl 1	*I'B	*	*I'S	*	*I'clno 2 in D	*I'clno 1 in D
*clefF4	*	*clefG2	*	*clefG2	*clefF4	*	*clefC1	*	*clefG2	*clefG2
*	*	*	*	*	*	*	*	*	*ITrd-1c-2	*ITrd-1c-2
*k[f#c#]	*	*k[f#c#]	*	*k[f#c#]	*k[f#c#]	*	*k[c#f#]	*	*k[f#c#]	*k[f#c#]
*D:	*	*D:	*	*D:	*D:	*	*D:	*	*D:	*D:
*M3/8	*	*M3/8	*	*M3/8	*M3/8	*	*M3/8	*	*M3/8	*M3/8
!LO:SIC:o=:v:krzyżyki zapisane nad nutami traktuję jako zapis bc i nie transkrybuję	!	!	!	!	!	!	!	!	!	!
!LO:TX:rj:b:t=Lauda Jerusalem	!	!LO:TX:rj:b:t=Lauda Jerusalem	!	!LO:TX::rj:b:t=Lauda Jerusalem	!	!	!	!	!LO:TX:b:t=Lauda Jerusalem	!LO:TX:rj:b:t=Lauda Jerusalem
8D\	.	[8ff#\	.	[8aa\	8r	.	8r	.	8ff#\	8aa\
=1	=1	=1	=1	=1	=1	=1	=1	=1	=1	=1
!	!	!	!	!	!LO:N:vis=00	!	!LO:N:vis=00	!	!	!
4D\	4 #2	8ff#\L]	.	8aa\L]	1.r	.	1.r	.	8ff#\L	8aa\L
.	.	8dd\	.	8ff#\	.	.	.	.	8dd\	8ff#\
8r	.	8ee\J	.	8gg\J	.	.	.	.	8ee\J	8gg\J
=2	=2	=2	=2	=2	=2	=2	=2	=2	=2	=2
4D\	.	4ff#\	.	4aa\	.	.	.	.	4ff#\	4aa\
8F#\	6	8a/	.	(16ff#\LL	.	.	.	.	8dd\	(16ff#\LL
.	.	.	.	16dd\JJ)	.	.	.	.	.	16dd\JJ)
=3	=3	=3	=3	=3	=3	=3	=3	=3	=3	=3
8G\L	6	8b/L	.	8ee\	.	.	.	.	8a/L	8ee\L
8F#\J	6	8a/J	.	4dd\	.	.	.	.	8f#/J	8dd\J
8r	.	8r	.	.	.	.	.	.	8r	8r
=4	=4	=4	=4	=4	=4	=4	=4	=4	=4	=4
4AA/	.	8ee\L	.	8ee\L	.	.	.	.	4a/	4ee\
.	.	16dd\L	.	(16dd\L	.	.	.	.	.	.
.	.	(16cc#\	.	16cc#\	.	.	.	.	.	.
8r	.	16b\	.	16b\	.	.	.	.	8r	8r
.	.	16a\JJ)	.	16a\JJ)	.	.	.	.	.	.
=5	=5	=5	=5	=5	=5	=5	=5	=5	=5	=5
!	!	!	!	!	!LO:N:vis=00	!	!LO:N:vis=00	!	!	!
8.C#/L	6	8.a\L	.	8.a\L	1.r	.	1.r	.	8.a/L	8.ee\L
16C#/K	-	16ee\K	.	16gg\K	.	.	.	.	16ee/K	16gg\K
8D/J	#	8dd\J	.	[8ff#\J	.	.	.	.	8dd/J	8ff#\J
=6	=6	=6	=6	=6	=6	=6	=6	=6	=6	=6
8D/L	.	8a/L	.	8ff#\L]	.	.	.	.	8a/L	8ff#\L
8AA/J	.	8cc#/J	.	8ee\J	.	.	.	.	8a/J	8ee\J
16r	.	16r	.	16r	.	.	.	.	8r	8r
16D\	.	16a/	.	16a/	.	.	.	.	.	.
=7	=7	=7	=7	=7	=7	=7	=7	=7	=7	=7
!	!	!	!	!LO:TUP:a:problem=klamra łukowa-global	!	!	!	!	!LO:N:vis=0	!LO:N:vis=0
8G\L	.	8b/L	.	24b\LL	.	.	.	.	2.r	2.r
.	.	.	.	24ccn\	.	.	.	.	.	.
.	.	.	.	24dd\JJ	.	.	.	.	.	.
8G\	.	8d/	.	24dd\LL	.	.	.	.	.	.
.	.	.	.	24ff#\	.	.	.	.	.	.
.	.	.	.	24gg\JJ	.	.	.	.	.	.
8G\J	.	8d/J	.	24gg\LL	.	.	.	.	.	.
.	.	.	.	24aa\	.	.	.	.	.	.
.	.	.	.	24bb\JJ	.	.	.	.	.	.
=8	=8	=8	=8	=8	=8	=8	=8	=8	=8	=8
8F#\L	6	8d/L	.	24b\LL	.	.	.	.	.	.
.	.	.	.	24ccn\	.	.	.	.	.	.
.	.	.	.	24dd\JJ	.	.	.	.	.	.
8F#\	.	8d/	.	24dd\LL	.	.	.	.	.	.
.	.	.	.	24ee\	.	.	.	.	.	.
.	.	.	.	24ff#\JJ	.	.	.	.	.	.
8F#\J	.	8d/J	.	24ff#\LL	.	.	.	.	.	.
.	.	.	.	24gg\	.	.	.	.	.	.
.	.	.	.	24aa\JJ	.	.	.	.	.	.
!LO:LB:g=original	!	!LO:LB:g=original	!	!	!	!	!	!	!	!
=9	=9	=9	=9	=9	=9	=9	=9	=9	=9	=9
!	!	!LO:SIC:o=:v:wykreśłony takt	!	!	!LO:N:vis=0	!	!LO:N:vis=00	!	!	!
8E\L	-6	16B/LL	.	8g/L	2.r	.	1.r	.	4.r	4.r
.	.	16c#/J	.	.	.	.	.	.	.	.
8D\J	#	8d/J	.	8f#/J	.	.	.	.	.	.
8r	.	8r	.	8r	.	.	.	.	.	.
!	!	!	!	!LO:LB:g=original	!	!	!	!	!	!
=10	=10	=10	=10	=10	=10	=10	=10	=10	=10	=10
8F#\L	6	8dd\L	.	8dd\L	.	.	.	.	8f#/	8dd\
8G\	6 5	8.ddT\	.	8ee\	.	.	.	.	4a/	4eeT\
8A\J	.	.	.	8cc#\J	.	.	.	.	.	.
.	.	16cc#\Jk	.	.	.	.	.	.	.	.
=11	=11	=11	=11	=11	=11	=11	=11	=11	=11	=11
!	!	!LO:TX:a:t=P:problem=mixed beam	!	!LO:TX:a:t=P:problem=mixed beam	!	!	!	!	!	!
4D\	.	8dd\L	.	8dd\L	4.r	.	.	.	4f#/	4dd\
.	.	8a/	.	8a/	.	.	.	.	.	.
8r	.	8d/J	.	8d/J	.	.	.	.	8r	8r
=12	=12	=12	=12	=12	=12	=12	=12	=12	=12	=12
!	!	!	!	!	!	!	!	!	!LO:N:vis=00	!LO:N:vis=00
4D\	.	8ff#\L	.	4aa\	8A\	Lau-	.	.	1.r	1.r
.	.	8dd\	p	.	8F#\	-da	.	.	.	.
8r	.	8ee\J	.	(16ff#\LL	8G\	Je-	.	.	.	.
.	.	.	.	16dd\JJ)	.	.	.	.	.	.
=13	=13	=13	=13	=13	=13	=13	=13	=13	=13	=13
!	!	!	!	!	!	!	!LO:N:vis=00	!	!	!
8D\	.	4ff#\	.	8aa\L	8.A\	-ru-	1.r	.	.	.
8r	.	.	.	8ff#\	.	.	.	.	.	.
.	.	.	.	.	16A\	-sa-	.	.	.	.
8F#\	6	[8a/	.	8gg\J	(16F#\LL	-lem	.	.	.	.
.	.	.	.	.	16D\JJ)	.	.	.	.	.
=14	=14	=14	=14	=14	=14	=14	=14	=14	=14	=14
8A\L	.	8a/]	.	8ee\	8E\	Do-	.	.	.	.
8D\J	.	4f#/	.	4dd\	16D\	-mi-	.	.	.	.
.	.	.	.	.	16D\	-num	.	.	.	.
8r	.	.	.	.	8r	.	.	.	.	.
=15	=15	=15	=15	=15	=15	=15	=15	=15	=15	=15
4AA/	.	8ee\L	.	8ee\L	8E\L	lau-	.	.	.	.
.	.	16dd\L	.	(16dd\L	(16D\L	.	.	.	.	.
.	.	(16cc#\	.	16cc#\	16C#\JJ)	.	.	.	.	.
8r	.	16b\	.	16b\	16BB/LL	-da	.	.	.	.
.	.	16a\JJ)	.	16a\JJ)	16AA/JJ	.	.	.	.	.
=16	=16	=16	=16	=16	=16	=16	=16	=16	=16	=16
8AA/L	.	8.a\L	.	8.a\L	16AA/	De-	.	.	4.r	4.r
.	.	.	.	.	16E\	-um	.	.	.	.
8AA/	.	.	.	.	8G\	tu-	.	.	.	.
.	.	16ee\K	.	16gg\K	.	.	.	.	.	.
8D/J	.	8dd\J	.	[8ff#\J	8F#\	-um	.	.	.	.
=17	=17	=17	=17	=17	=17	=17	=17	=17	=17	=17
!	!	!	!	!	!	!	!LO:N:vis=00	!	!	!
8D/L	.	8a\L	.	8ff#\L]	8G\	Si-	1.r	.	8r	8r
8AA/J	.	8cc#\J	.	8ee\J	8E\	-on	.	.	8r	8r
16r	.	16r	.	16r	8r	.	.	.	16r	16r
16D\	.	16a/	.	16a/	.	.	.	.	16d/	16d/
=18	=18	=18	=18	=18	=18	=18	=18	=18	=18	=18
!	!	!	!	!	!LO:N:vis=00	!	!	!	!	!
8G\L	.	8b/L	.	24b\LL	1.r	.	.	.	8d/L	8d/L
.	.	.	.	24ccn\	.	.	.	.	.	.
.	.	.	.	24dd\JJ	.	.	.	.	.	.
8G\	.	8d/	.	24dd\LL	.	.	.	.	8d/	8d/
.	.	.	.	24ff#\	.	.	.	.	.	.
.	.	.	.	24gg\JJ	.	.	.	.	.	.
8G\J	.	8d/J	.	24gg\LL	.	.	.	.	8d/J	8d/J
.	.	.	.	24aa\	.	.	.	.	.	.
.	.	.	.	24bb\JJ	.	.	.	.	.	.
=19	=19	=19	=19	=19	=19	=19	=19	=19	=19	=19
8F#\L	6	8d/L	.	24a\LL	.	.	.	.	4d/	4d/
.	.	.	.	24cc#X\	.	.	.	.	.	.
.	.	.	.	24dd\JJ	.	.	.	.	.	.
8F#\	.	8d/	.	24dd\LL	.	.	.	.	.	.
.	.	.	.	24ee\	.	.	.	.	.	.
.	.	.	.	24ff#\JJ	.	.	.	.	.	.
8F#\J	.	8d/J	.	24ff#\LL	.	.	.	.	8r	8r
.	.	.	.	24gg\	.	.	.	.	.	.
.	.	.	.	24aa\JJ	.	.	.	.	.	.
=20	=20	=20	=20	=20	=20	=20	=20	=20	=20	=20
8E\L	-6	16B/LL	.	8g/L	.	.	.	.	4.r	4.r
.	.	16c#/J	.	.	.	.	.	.	.	.
8D\J	#	8d/J	.	8f#/J	.	.	.	.	.	.
8r	.	8r	.	8r	.	.	.	.	.	.
!	!	!LO:LB:g=original	!	!	!	!	!	!	!	!
=21	=21	=21	=21	=21	=21	=21	=21	=21	=21	=21
!	!	!	!	!	!	!	!LO:N:vis=00	!	!	!
8F#\L	6	8a/L	.	8dd\L	.	.	1.r	.	8f#/	8dd\
8G\	6 5	8.b/	.	8ee\	.	.	.	.	4a/	4ee\
8A\J	.	.	.	8cc#\J	.	.	.	.	.	.
.	.	16e/Jk	.	.	.	.	.	.	.	.
!LO:LB:g=original	!	!	!	!LO:LB:g=original	!	!	!	!	!	!
=22	=22	=22	=22	=22	=22	=22	=22	=22	=22	=22
!	!	!LO:TX:a:t=P:problem=mixed beam	!	!LO:TX:a:t=P:problem=mixed beam	!	!	!	!	!	!
8D\	.	8f#/L	.	8dd\L	8r	.	.	.	4f#/	4dd\
8r	.	8d/	.	8d/	8r	.	.	.	.	.
8D\	.	[>8ff#\J	.	[>8aa\J	8A\	Quo-	.	.	8r	8r
!	!	!	!	!	!LO:LB:g=original	!	!	!	!	!
=23	=23	=23	=23	=23	=23	=23	=23	=23	=23	=23
!	!	!	!	!	!	!	!	!	!LO:N:vis=00	!LO:N:vis=00
4D\	4 #2	8ff#\L]	.	8aa\L]	8A\	.	.	.	1.r	1.r
.	.	8dd\	.	8ff#\	8F#\	-ni-	.	.	.	.
8r	.	8ee\J	.	(8gg\J	16G\	-am	.	.	.	.
.	.	.	.	.	16G\	con-	.	.	.	.
=24	=24	=24	=24	=24	=24	=24	=24	=24	=24	=24
!	!	!	!	!	!LO:SIC:o=:v:nuty wtórnie rozłączone	!	!	!	!	!
4D\	4 #2	8ff#\L	.	8aa\L)	8A\	-for-	.	.	.	.
.	.	8dd\	.	8ff#\	8F#\	-ta-	.	.	.	.
8r	.	8ee\J	.	8gg\J	8G\	-vit	.	.	.	.
=25	=25	=25	=25	=25	=25	=25	=25	=25	=25	=25
!	!	!	!	!	!	!	!LO:N:vis=00	!	!	!
8D\L	.	8ff#\L	.	8aa\L	8A\	Se-	1.r	.	.	.
8D\	.	8ee\J	.	8ff#\	8F#\	-ras	.	.	.	.
8E\J	-6	(16b\LL	.	8gg\J	8G\	por-	.	.	.	.
.	.	16cc#\JJ)	.	.	.	.	.	.	.	.
=26	=26	=26	=26	=26	=26	=26	=26	=26	=26	=26
!	!	!LO:TX:a:t=P:problem=mixed beam	!	!	!	!	!	!	!	!
8F#\	6	(16a\LL	.	4aa\	8A\	-ta-	.	.	.	.
.	.	16dd\J)	.	.	.	.	.	.	.	.
8r	_	8ff#\	.	.	8A\	-ru(m)	.	.	.	.
8F#\	.	8a/J	.	(16ff#\LL	16F#\LL	tu-	.	.	.	.
.	x	.	.	16dd\JJ)	16D\JJ	.	.	.	.	.
=27	=27	=27	=27	=27	=27	=27	=27	=27	=27	=27
!	!	!	!	!	!	!	!	!	!LO:N:vis=00	!LO:N:vis=00
8A\L	.	8a/	.	8ee\	8E\	-a-	.	.	1.r	1.r
8D\J	.	4f#/	.	4dd\	8D\	-rum	.	.	.	.
8r	.	.	.	.	8r	.	.	.	.	.
=28	=28	=28	=28	=28	=28	=28	=28	=28	=28	=28
!	!	!	!	!	!LO:SIC:o=:v:takt nadpisany u góry strony za pomocą formuły "vide retro"	!	!	!	!	!
4AA/	.	8ee\L	.	8ee\L	8E\L	be-	.	.	.	.
.	.	16dd\L	.	(16dd\L	(16D\L	.	.	.	.	.
.	.	(16cc#\	.	16cc#\	16C#\JJ)	.	.	.	.	.
8r	.	16b\	.	16b\	(16BB/LL	-ne-	.	.	.	.
.	.	16a\JJ)	.	16a\JJ)	16AA/JJ)	.	.	.	.	.
=29	=29	=29	=29	=29	=29	=29	=29	=29	=29	=29
!	!	!	!	!	!	!	!LO:N:vis=00	!	!	!
8C#/L	6	4a/	.	4ee\	4E\	-di-	1.r	.	.	.
8AA/	.	.	.	.	.	.	.	.	.	.
8D/J	.	8a/	.	8ff#\	8F#\	-xit	.	.	.	.
=30	=30	=30	=30	=30	=30	=30	=30	=30	=30	=30
8BB/L	6-	[4.a/	.	8.gg\L	8.G\	Fi-	.	.	.	.
8C#/	.	.	.	.	.	.	.	.	.	.
.	.	.	.	16ee\K	16E\	-li-	.	.	.	.
8D/J	.	.	.	8ff#\J	8F#\	-js	.	.	.	.
=31	=31	=31	=31	=31	=31	=31	=31	=31	=31	=31
!	!	!	!	!	!	!	!	!	!LO:N:vis=00	!LO:N:vis=00
8E\L	-	4.a/]	.	8.gg\L	8.G\	tu-	.	.	1.r	1.r
8C#\	.	.	.	.	.	.	.	.	.	.
.	.	.	.	16ee\L	16E\	-is	.	.	.	.
8D\J	.	.	.	16ff#\	16F#\LL	in	.	.	.	.
.	.	.	.	16dd\JJ	16D\JJ	.	.	.	.	.
=32	=32	=32	=32	=32	=32	=32	=32	=32	=32	=32
8AA/	.	8a/	.	(16cc#\LL	8C#/	te	.	.	.	.
.	.	.	.	16a\JJ)	.	.	.	.	.	.
!	!	!	!	!LO:TX:a:t=P:problem=mixed beam	!	!	!	!	!	!
8r	.	8r	.	8A/L	8r	.	.	.	.	.
8D\	.	[8ff#\	.	[>8aa\J	8A\	Qui	.	.	.	.
=33	=33	=33	=33	=33	=33	=33	=33	=33	=33	=33
!	!	!	!	!	!	!	!LO:N:vis=00	!	!	!
4D\	4 #2	8ff#\L]	.	8aa\L]	16A\	po-	1.r	.	.	.
.	.	.	.	.	16A\	-su-	.	.	.	.
.	.	8dd\	.	8ff#\	8F#\	-it	.	.	.	.
8r	.	8ee\J	.	8gg\J	16G\	fi-	.	.	.	.
.	.	.	.	.	16G\	-nes	.	.	.	.
!	!	!	!	!	!LO:LB:g=original	!	!	!	!	!
=34	=34	=34	=34	=34	=34	=34	=34	=34	=34	=34
!	!	!	!	!	!LO:SIC:o=:v:belka wtórna	!	!	!	!	!
8D\	.	4ff#\	.	4aa\	(8A\L	tu-	.	.	.	.
8r	.	.	.	.	8A\J)	.	.	.	.	.
8F#\	6	8a/	.	(16ff#\LL	(16F#\LL	-os	.	.	.	.
.	.	.	.	16dd\JJ)	16D\JJ)	.	.	.	.	.
!	!	!LO:LB:g=original	!	!	!	!	!	!	!	!
=35	=35	=35	=35	=35	=35	=35	=35	=35	=35	=35
!	!	!	!	!	!	!	!	!	!LO:N:vis=00	!LO:N:vis=00
8A\L	.	8cc#\L	.	8ff#\L	8E\	pa-	.	.	1.r	1.r
8F#\J	6	8dd\J	.	8dd\J	8D\	-cem	.	.	.	.
!LO:LB:g=original	!	!	!	!	!	!	!	!	!	!
16r	.	16r	.	16r	16r	.	.	.	.	.
16AA/	.	16cc#\	.	16ee\	16E\	ex	.	.	.	.
!	!	!	!	!LO:PB:g=original	!	!	!	!	!	!
=36	=36	=36	=36	=36	=36	=36	=36	=36	=36	=36
!	!	!	!	!LO:TX:a:t=P:problem=mixed beam	!	!	!	!	!	!
8D\L	#	8dd\L	.	8ff#\L	16F#\	a-	.	.	.	.
.	.	.	.	.	16D\	-di-	.	.	.	.
8D\	.	8a\	.	8d/	8F#\	-pe	.	.	.	.
8D\J	.	8a\J	.	8ff#\J	8F#\	fru-	.	.	.	.
=37	=37	=37	=37	=37	=37	=37	=37	=37	=37	=37
!	!	!	!	!LO:TX:a:t=P:problem=mixed beam	!LO:SIC:l:s=men	!	!	!	!	!
!	!	!	!	!	!	!	!LO:N:vis=00	!	!	!
8D\L	4_ 2_	8b\L	.	8gg#X\L	16G#X\LL	-mem-	1.r	.	.	.
.	.	.	.	.	16F#\J	.	.	.	.	.
8D\	.	8b\	.	8e/	8G#\	.	.	.	.	.
8D\J	x	8b\J	.	8gg#\J	8G#\J	.	.	.	.	.
=38	=38	=38	=38	=38	=38	=38	=38	=38	=38	=38
!	!	!	!	!LO:TX:a:t=P:problem=mixed beam	!	!	!	!	!	!
8C#/L	6	8cc#\L	.	8aa\L	16A\LL	.	.	.	.	.
.	.	.	.	.	16E\J	.	.	.	.	.
8C#/	.	8ee\	.	8f#/	8A\	.	.	.	.	.
8C#/J	.	8aa\J	.	8aa\J	8A\J	.	.	.	.	.
=39	=39	=39	=39	=39	=39	=39	=39	=39	=39	=39
!	!	!LO:TX:a:t=P:problem=mixed beam	!	!LO:TX:a:t=P:problem=mixed beam	!	!	!	!LO:N:vis=00	!LO:N:vis=00	!
8E\L	#	8gg#X\L	.	8bb\L	16B\LL	.	.	.	1.r	1.r
.	.	.	.	.	16E\JJ	.	.	.	.	.
8E\	.	8e/	.	8g#X/	4B\	.	.	.	.	.
8E\J	.	8gg#\J	.	8bb\J	.	.	.	.	.	.
=40	=40	=40	=40	=40	=40	=40	=40	=40	=40	=40
8A\L	.	8ee\L	.	8ccc#\L	8c#\	.	.	.	.	.
16E\L	#	8gg#X\J	.	8bb\J	4B\	-ti	.	.	.	.
16F#\	.	.	.	.	.	.	.	.	.	.
16G#X\	.	8r	.	8r	.	.	.	.	.	.
16E\JJ	.	.	.	.	.	.	.	.	.	.
=41	=41	=41	=41	=41	=41	=41	=41	=41	=41	=41
!	!	!	!	!	!	!	!LO:N:vis=00	!	!	!
8.C#/L	6	4.r	.	4.r	8.A\	Sa-	1.r	.	.	.
16D/K	6	.	.	.	16B\	-ti-	.	.	.	.
8E/J	#	.	.	.	8G#X\	-at	.	.	.	.
=42	=42	=42	=42	=42	=42	=42	=42	=42	=42	=42
8AA/L	.	8r	.	8r	4A\	te	.	.	.	.
16E/L	.	8r	.	8r	.	.	.	.	.	.
16D/	.	.	.	.	.	.	.	.	.	.
16C#/	6	[8cc#\	.	[8ee\	8r	.	.	.	.	.
16BB/JJ	.	.	.	.	.	.	.	.	.	.
=43	=43	=43	=43	=43	=43	=43	=43	=43	=43	=43
!	!	!	!	!	!LO:N:vis=00	!	!	!	!LO:N:vis=00	!LO:N:vis=00
4AA/	4 2	8cc#\L]	.	8ee\L]	1.r	.	.	.	1.r	1.r
.	.	8a\	.	8cc#\	.	.	.	.	.	.
8r	.	8b\J	.	8dd\J	.	.	.	.	.	.
=44	=44	=44	=44	=44	=44	=44	=44	=44	=44	=44
8C#/	.	8a/	.	4ee\	.	.	.	.	.	.
8r	.	8r	.	.	.	.	.	.	.	.
8C#/	.	8a/	.	(16cc#\LL	.	.	.	.	.	.
.	.	.	.	16a\JJ)	.	.	.	.	.	.
=45	=45	=45	=45	=45	=45	=45	=45	=45	=45	=45
!	!	!	!	!	!	!	!LO:N:vis=00	!	!	!
8E/L	#	8g#X/L	.	8b/L	.	.	1.r	.	.	.
8AA/J	2	8a/J	.	8a/J	.	.	.	.	.	.
16r	.	16r	.	16r	.	.	.	.	.	.
16AA/	.	16cc#\	.	16ee\	.	.	.	.	.	.
=46	=46	=46	=46	=46	=46	=46	=46	=46	=46	=46
8D\L	4 #	8a/L	.	24ff#\LL	.	.	.	.	.	.
.	.	.	.	24ee\	.	.	.	.	.	.
.	.	.	.	24dd\JJ	.	.	.	.	.	.
8D\	.	8a/	.	24dd\LL	.	.	.	.	.	.
.	.	.	.	24cc#\	.	.	.	.	.	.
.	.	.	.	24a\JJ	.	.	.	.	.	.
8D\J	.	8a/J	.	24a\LL	.	.	.	.	.	.
.	.	.	.	24dd\	.	.	.	.	.	.
.	.	.	.	24ff#\JJ	.	.	.	.	.	.
!	!	!	!	!	!	!	!	!	!LO:LB:g=original	!LO:LB:g=original
=47	=47	=47	=47	=47	=47	=47	=47	=47	=47	=47
!	!	!	!	!	!LO:N:vis=0	!	!	!	!LO:N:vis=00	!LO:N:vis=00
8C#/L	6	8a/L	.	24ee\LL	2.r	.	.	.	1.r	1.r
.	.	.	.	24dd\	.	.	.	.	.	.
.	.	.	.	24cc#\JJ	.	.	.	.	.	.
8C#/	.	8a/	.	24cc#\LL	.	.	.	.	.	.
.	.	.	.	24b\	.	.	.	.	.	.
.	.	.	.	24a\JJ	.	.	.	.	.	.
!	!	!	!	!LO:TX:a:t=P:problem=mixed beam	!	!	!	!	!	!
8C#/J	.	8a/J	.	24A/LL	.	.	.	.	.	.
.	.	.	.	24cc#\	.	.	.	.	.	.
.	.	.	.	24ee\JJ	.	.	.	.	.	.
!LO:TX:b:t=V(er)T(e)	!	!	!	!	!	!	!	!	!	!
!LO:PB:g=original	!	!LO:LB:g=original	!	!	!	!	!	!	!	!
=48	=48	=48	=48	=48	=48	=48	=48	=48	=48	=48
8BB/L	.	16f#/LL	.	8dd\L	.	.	.	.	.	.
.	.	16g#X/J	.	.	.	.	.	.	.	.
8AA/J	.	8a/J	.	8cc#\J	.	.	.	.	.	.
8r	.	8r	.	8r	.	.	.	.	.	.
!	!	!	!	!LO:LB:g=original	!	!	!	!	!	!
=49	=49	=49	=49	=49	=49	=49	=49	=49	=49	=49
!	!	!	!	!	!	!	!LO:N:vis=00	!	!	!
8C#/L	6	(16aa\LL	.	16aa\LL	4.r	.	1.r	.	.	.
.	.	16ee\J)	.	16ff#\J	.	.	.	.	.	.
8D/	6 5	8dd\	.	8dd\	.	.	.	.	.	.
8E/J	#	8b\J	.	8b\J	.	.	.	.	.	.
=50	=50	=50	=50	=50	=50	=50	=50	=50	=50	=50
8AA/	.	8a\	.	8a/	8r	.	.	.	.	.
8r	.	8r	.	8r	8r	.	.	.	.	.
8D\	.	8ff#\	.	[8aa\	16A\	Qui	.	.	.	.
.	.	.	.	.	16A\	e-	.	.	.	.
=51	=51	=51	=51	=51	=51	=51	=51	=51	=51	=51
!LO:SIC:o=:v:takt ujęty w repetycję	!	!	!	!	!	!	!	!	!LO:N:vis=00	!LO:N:vis=00
4D\	-4	8ff#\L	.	8aa\L]	8A\	-mit-	.	.	1.r	1.r
.	.	8dd\	.	8ff#\	8F#\	-tit	.	.	.	.
8E\	#2	8ee\J	.	8gg\J	8G\	e-	.	.	.	.
=52	=52	=52	=52	=52	=52	=52	=52	=52	=52	=52
!LO:TX:a:t=P:problem=takt zapisany powtórką	!	!	!	!	!	!	!	!	!	!
4D\yy	-4	4ff#t\	.	8aa\L	8.A\	-lo-	.	.	.	.
.	.	.	.	8ff#\	.	.	.	.	.	.
!	!	!	!	!	!LO:LB:g=original	!	!	!	!	!
.	.	.	.	.	16F#\	-qui-	.	.	.	.
8E\yy	#2	(16b\LL	.	8gg\J	8G\	-um	.	.	.	.
.	.	16cc#\JJ)	.	.	.	.	.	.	.	.
=53	=53	=53	=53	=53	=53	=53	=53	=53	=53	=53
!	!	!	!	!	!	!	!LO:N:vis=00	!	!	!
8F#\	6_	4dd\	.	4aa\	4A\	Su-	1.r	.	.	.
8r	.	.	.	.	.	.	.	.	.	.
8F#\	.	8a/	.	(16ff#\LL	(16F#\LL	-um	.	.	.	.
.	x	.	.	16dd\JJ)	16D\JJ)	.	.	.	.	.
=54	=54	=54	=54	=54	=54	=54	=54	=54	=54	=54
8A\L	.	8cc#\L	.	8ee\L	8E\	ter-	.	.	.	.
8F#\J	6	8dd\J	.	8dd\J	8D\	-re	.	.	.	.
16r	.	16r	.	16r	16r	.	.	.	.	.
16D\	.	16a/	.	16ff#\	16F#\	Ve-	.	.	.	.
=55	=55	=55	=55	=55	=55	=55	=55	=55	=55	=55
!	!	!	!	!	!	!	!	!	!LO:N:vis=00	!LO:N:vis=00
8AA/L	.	8cc#\L	.	8ff#\L	16E\	-lo-	.	.	1.r	1.r
.	.	.	.	.	16C#/	-ci-	.	.	.	.
8AA/	.	8cc#\	.	8ee\	4AA/	-ter	.	.	.	.
8AA/J	.	8a\J	.	8cc#\J	.	.	.	.	.	.
=56	=56	=56	=56	=56	=56	=56	=56	=56	=56	=56
!	!	!	!	!	!LO:SIC:l:s=cur	!	!	!	!	!
8D\L	.	8a/L	.	8ff#\L	16D\	Cu-	.	.	.	.
.	.	.	.	.	16D\	-rit	.	.	.	.
!	!	!	!	!	!LO:SIC:l:s=cur	!	!	!	!	!
8F#\	6	8a/	.	8ff#\	16F#\	Cu-	.	.	.	.
.	.	.	.	.	16A\	-rit	.	.	.	.
8D\J	.	[>8a/J	.	[8ff#\J	16d\	Ser-	.	.	.	.
.	.	.	.	.	16A\	-mo	.	.	.	.
=57	=57	=57	=57	=57	=57	=57	=57	=57	=57	=57
!	!	!	!	!	!	!	!LO:N:vis=00	!	!	!
8E\L	4 9	8a/]	.	8ff#\]	8A\	e-	1.r	.	.	.
16E\L	6_ 8_	[4g/	.	4ee\	8G\	-jus	.	.	.	.
16D\	.	.	.	.	.	.	.	.	.	.
16C#\	.	.	.	.	8r	.	.	.	.	.
16BB\JJ	x	.	.	.	.	.	.	.	.	.
=58	=58	=58	=58	=58	=58	=58	=58	=58	=58	=58
!	!	!	!	!	!LO:SIC:l:s=cur	!	!	!	!	!
8AA/L	7_ 5_	8g/L]	.	8ee\L	16G\	Cu-	.	.	.	.
.	.	.	.	.	16G\	-rit	.	.	.	.
*	*	*	*	*	*	*ij	*	*	*	*
8C#/	.	8g/	.	8ee\	16G\	Cur-	.	.	.	.
.	.	.	.	.	16G\	-rit	.	.	.	.
*	*	*	*	*	*	*Xij	*	*	*	*
8AA/J	.	[8g/J	.	8ee\J	16G\	Ser-	.	.	.	.
.	3	.	.	.	16G\	-mo	.	.	.	.
=59	=59	=59	=59	=59	=59	=59	=59	=59	=59	=59
!	!	!	!	!	!	!	!	!	!LO:N:vis=00	!LO:N:vis=00
8D\L	4 9	8g/L]	.	8ee\L	8G\	e-	.	.	1.r	1.r
8D\	#_ 8_	8f#/	.	8dd\	8F#\	-jus	.	.	.	.
8D\J	.	8f#/J	.	8dd\J	16F#\	qui	.	.	.	.
.	#	.	.	.	16F#\	dat	.	.	.	.
=60	=60	=60	=60	=60	=60	=60	=60	=60	=60	=60
8AA/L	6 4	8f#/L	.	8dd\L	8F#\	ni-	.	.	.	.
8AA/	4 #	8e/	.	8cc#\	8E\	-vem	.	.	.	.
8C#/J	6	8g/J	.	[8ee\J	16G\	Si-	.	.	.	.
.	.	.	.	.	16G\	-cut	.	.	.	.
!	!	!LO:LB:g=original	!	!	!	!	!	!	!	!
=61	=61	=61	=61	=61	=61	=61	=61	=61	=61	=61
!LO:SIC:o=:v:nieczytelne cyfrowanie	!	!	!	!	!	!	!LO:N:vis=00	!	!	!
8D\L	.	8g/	.	8ee\]	8G\	la-	1.r	.	.	.
!	!	!	!	!	!LO:LB:g=original	!	!	!	!	!
8D\J	.	4f#/	.	4dd\	8F#\	-nam	.	.	.	.
8r	.	.	.	.	8r	.	.	.	.	.
!LO:LB:g=original	!	!	!	!	!	!	!	!	!	!
=62	=62	=62	=62	=62	=62	=62	=62	=62	=62	=62
8AA/L	.	16cc#\LL	.	8aa\L	8A\	Ne-	.	.	.	.
.	.	16b\J	.	.	.	.	.	.	.	.
8E/	#	(8ee\	.	8gg#X\	16G#X\	-bu-	.	.	.	.
.	.	.	.	.	16G#\	-lam	.	.	.	.
8G#X/J	6-	8dd\J)	.	[8bb\J	16B\	Si-	.	.	.	.
.	.	.	.	.	16B\	-cut	.	.	.	.
=63	=63	=63	=63	=63	=63	=63	=63	=63	=63	=63
!	!	!	!	!	!	!	!	!	!LO:N:vis=00	!LO:N:vis=00
8.A\L	.	8.dd\L	.	8.bb\L]	8.B\	Ci-	.	.	1.r	1.r
16A\K	.	16cc#\K	.	16aa\K	16A\	-ne-	.	.	.	.
8A\J	.	8cc#\J	.	8aa\J	8A\	-rem	.	.	.	.
=64	=64	=64	=64	=64	=64	=64	=64	=64	=64	=64
!	!	!	!	!LO:TX:a:t=P:problem=mixed beam	!	!	!	!	!	!
8E\L	#	8b\L	.	8gg#X\L	16G#X\LL	Spar-	.	.	.	.
.	.	.	.	.	16E\	.	.	.	.	.
8E\	.	8b\	.	8e/	16D\	.	.	.	.	.
.	.	.	.	.	16E\	.	.	.	.	.
8E\J	.	8b\J	.	8gg#\J	16D\	.	.	.	.	.
.	.	.	.	.	16E\JJ	.	.	.	.	.
!	!	!	!	!LO:LB:g=original	!	!	!	!	!	!
=65	=65	=65	=65	=65	=65	=65	=65	=65	=65	=65
!	!	!	!	!	!	!	!LO:N:vis=00	!	!	!
8E\L	6_ 4_	8cc#\L	.	8aa\L	16A\LL	.	1.r	.	.	.
.	.	.	.	.	16E\	.	.	.	.	.
8E\	.	8cc#\	.	8aa\	16D\	.	.	.	.	.
.	.	.	.	.	16E\	.	.	.	.	.
8E\J	.	8cc#\J	.	8aa\J	16D\	.	.	.	.	.
.	x	.	.	.	16E\JJ	.	.	.	.	.
=66	=66	=66	=66	=66	=66	=66	=66	=66	=66	=66
8E\L	4 #	8ee\L	.	8bb\L	16B\LL	.	.	.	.	.
.	.	.	.	.	16E\	.	.	.	.	.
8E\	.	8gg#X\	.	8bb\	16D\	.	.	.	.	.
.	.	.	.	.	16E\	.	.	.	.	.
8E\J	.	8gg#\J	.	8bb\J	16D\	.	.	.	.	.
.	.	.	.	.	16E\JJ	.	.	.	.	.
=67	=67	=67	=67	=67	=67	=67	=67	=67	=67	=67
!	!	!	!	!	!	!	!	!	!LO:N:vis=00	!LO:N:vis=00
4AA/	.	16aa\LL	.	16ccc#\LL	8c#\	.	.	.	1.r	1.r
.	.	(16ee\	.	(16aa\	.	.	.	.	.	.
.	.	16cc#\	.	16ee\	8A\	-git	.	.	.	.
.	.	16a\JJ)	.	16cc#\J)	.	.	.	.	.	.
8r	.	8c#/	.	8a\J	8r	.	.	.	.	.
=68	=68	=68	=68	=68	=68	=68	=68	=68	=68	=68
!	!	!	!	!LO:TX:a:t=P:problem=mixed beam	!	!	!	!	!	!
8Gn\L	.	8dd\L	.	8bb\L	8.B\	Ne-	.	.	.	.
8G\	.	8dd\	.	8gn/	.	.	.	.	.	.
.	.	.	.	.	16d\	-bu-	.	.	.	.
8G\J	.	8dd\J	.	8bb\J	8B\	-lam	.	.	.	.
=69	=69	=69	=69	=69	=69	=69	=69	=69	=69	=69
!	!	!	!	!LO:TX:a:t=P:problem=mixed beam	!	!	!	!	!	!
!	!	!	!	!	!	!	!LO:N:vis=00	!	!	!
8F#\L	6_	8dd\L	.	8aa\L	8.A\	Si-	1.r	.	.	.
8F#\	.	8ff#\	.	8d/	.	.	.	.	.	.
.	.	.	.	.	16d\	.	.	.	.	.
8F#\J	x	8dd\J	.	8aa\J	8A\	-cut	.	.	.	.
=70	=70	=70	=70	=70	=70	=70	=70	=70	=70	=70
8E\L	-	8b\	.	(16gg\LL	(16Gn\LL	ci-	.	.	.	.
.	.	.	.	16aa\J)	16A\JJ)	.	.	.	.	.
8C#\	7 4	4ee\	.	8bb\	8B\	-ne-	.	.	.	.
8C#\J	-6	.	.	(16aa\L	16A\	.	.	.	.	.
.	.	.	.	16gg\JJ)	16G\	-rem	.	.	.	.
=71	=71	=71	=71	=71	=71	=71	=71	=71	=71	=71
!	!	!	!	!	!	!	!	!	!LO:N:vis=00	!LO:N:vis=00
8D\L	.	16dd\LL	.	(16ff#\LL	(16F#\LL	Spar-	.	.	1.r	1.r
.	.	16ee\J	.	16gg\J)	16G\JJ)	.	.	.	.	.
8D\	.	8ff#\	.	8aa\	8A\L	.	.	.	.	.
8D\J	.	16ee\L	.	(16gg\L	(16G\L	.	.	.	.	.
.	.	16dd\JJ	.	16ff#\JJ)	16F#\JJ)	.	.	.	.	.
!	!	!	!	!	!LO:LB:g=original	!	!	!	!	!
=72	=72	=72	=72	=72	=72	=72	=72	=72	=72	=72
8E\L	-	8b\L	.	(16ee\LL	16E\LL	.	.	.	.	.
.	.	.	.	16ff#\J)	16F#\J	.	.	.	.	.
8C#\	.	8ee\	.	8gg\	8G\	.	.	.	.	.
8AA\J	.	8cc#\J	.	(16ff#\L	16F#\L	.	.	.	.	.
.	.	.	.	16ee\JJ)	16E\JJ	.	.	.	.	.
=73	=73	=73	=73	=73	=73	=73	=73	=73	=73	=73
!	!	!	!	!	!	!	!LO:N:vis=00	!	!	!
4D\	.	16dd\LL	.	16ff#\LL	8F#\	.	1.r	.	.	.
.	.	16a\	.	16dd\	.	.	.	.	.	.
.	.	16dd\	.	16a\	8D\	-git	.	.	.	.
.	.	16a\J	.	16f#\JJ	.	.	.	.	.	.
8r	.	8f#\J	.	8d/	8r	.	.	.	.	.
!	!	!LO:LB:g=original	!	!	!	!	!	!	!	!
=74	=74	=74	=74	=74	=74	=74	=74	=74	=74	=74
!	!	!LO:N:vis=00	!	!LO:N:vis=00	!	!	!	!	!	!
8.D\L	.	1.r	.	1.r	8.d\	ne-	.	.	.	.
16A\K	.	.	.	.	16c#\	-bu-	.	.	.	.
8G\J	.	.	.	.	8B\	-lam	.	.	.	.
=75	=75	=75	=75	=75	=75	=75	=75	=75	=75	=75
!	!	!	!	!	!	!	!	!	!LO:N:vis=0	!LO:N:vis=0
8.F#\L	.	.	.	.	(8.A\L	Si-	.	.	2.r	2.r
16E\K	.	.	.	.	16G\Jk)	.	.	.	.	.
8D\J	.	.	.	.	8F#\	-cut	.	.	.	.
!LO:LB:g=original	!	!	!	!	!	!	!	!	!	!
=76	=76	=76	=76	=76	=76	=76	=76	=76	=76	=76
!LO:TX:a:t=P:problem=mixed beam	!	!	!	!	!	!	!	!	!	!
8G\L	.	.	.	.	8.G\	Ci-	.	.	.	.
8A\	.	.	.	.	.	.	.	.	.	.
.	.	.	.	.	16A\	-ne-	.	.	.	.
8AA/J	.	.	.	.	8AA/	-rem	.	.	.	.
=77	=77	=77	=77	=77	=77	=77	=77	=77	=77	=77
4D/	.	.	.	.	8D\	Spar-	4.r	.	4.r	4.r
.	.	.	.	.	8D\	-git	.	.	.	.
8DD/	.	.	.	.	8r	.	.	.	.	.
=78	=78	=78	=78	=78	=78	=78	=78	=78	=78	=78
8D\L	.	8f#/L	.	8dd\L	8D\	Mit-	8dd\	Mit-	8f#/L	8dd\L
8F#\	.	8f#/	.	8dd\	8F#\	-tit	8dd\	-tit	8f#/	8dd\
8D\J	.	8f#/J	.	[8dd\J	8D\	Cris-	8dd\	Cry-	8f#/J	8dd\J
=79	=79	=79	=79	=79	=79	=79	=79	=79	=79	=79
!LO:TX:a:t=P:problem=mixed beam	!	!	!	!	!	!	!	!	!	!
8A\L	n -	8e/L	.	8dd\L]	4A\	-tal-	8dd\L	-stal-	8a/	8ee\
8A\	7 n	8e/	.	16cc#\L	.	.	(16cc#\L	.	8r	8r
.	.	.	.	16dd\J	.	.	16dd\JJ)	.	.	.
8AA\J	7 5	[8g/J	.	[8ee\J	8AA/	-lum	8ee\	-lum	8a/	8ee\
=80	=80	=80	=80	=80	=80	=80	=80	=80	=80	=80
8D\L	9 4	8g/]	.	8ee\]	8D\	Su-	8ee\	Su-	8a/L	8ee\L
8D\J	5 #	4f#/	.	4dd\	8D\	-um	4dd\	-am	8f#/J	8dd\J
8r	.	.	.	.	8r	.	.	.	8r	8r
!	!	!	!	!	!	!	!LO:TX:b:t=cito Verte	!	!	!
!	!	!	!	!	!	!	!LO:PB:g=original	!	!	!
=81	=81	=81	=81	=81	=81	=81	=81	=81	=81	=81
8D\L	.	8a/L	.	8ff#\L	8D\	Si-	8ff#\	Si-	8dd\L	8ff#\L
8G\	.	8g/	.	8ee\	8G\	-cut	8ee\	-cut	8ee\	8gg\
8G\J	.	8f#/J	.	[8dd\J	8G\	buc-	8dd\	buc-	8dd\J	8ee\J
=82	=82	=82	=82	=82	=82	=82	=82	=82	=82	=82
!LO:TX:a:t=P:problem=mixed beam	!	!	!	!	!	!	!	!	!LO:TX:a:t=P:problem=mixed beam	!
8A\L	.	16f#/LL	.	16dd\LL]	8A\	-cel-	8dd\	-cel-	8dd\L	8ff#\L
.	.	16e/	.	16cc#\	.	.	.	.	.	.
8AA/J	.	16a/	.	16a\	8AA/	-las	8cc#\	-las	8a/J	8ee\J
.	.	16c#/J	.	16e\JJ	.	.	.	.	.	.
8r	.	8A/J	.	8c#/	8r	.	8r	.	8r	8r
!	!	!	!	!LO:LB:g=original	!	!	!	!	!	!
=83	=83	=83	=83	=83	=83	=83	=83	=83	=83	=83
!	!	!	!	!	!LO:SIC:l:s=an	!	!	!	!	!
8A\L	.	4cc#\	.	4ee\	(8A\L	A-	4ee\	An-	4a/	4ee\
8c#\	.	.	.	.	8c#\J)	.	.	.	.	.
8d\J	.	8a/	.	8ff#\	8d\	-te	8ff#\	-te	8dd\	8ff#\
=84	=84	=84	=84	=84	=84	=84	=84	=84	=84	=84
8B\L	6	8.dd\L	.	8.gg\L	8.B\	Fa-	8.gg\	fa-	8.dd\L	8.gg\L
8c#\	.	.	.	.	.	.	.	.	.	.
!	!	!	!	!	!LO:LB:g=original	!	!	!	!	!
.	.	16ee\K	.	16ee\K	16c#\	-ci-	16ee\	-ci-	16ee\K	8ee\
8d\J	.	8dd\J	.	8ff#\J	8d\	-em	8ff#\	-em	8dd\J	.
.	.	.	.	.	.	.	.	.	.	16ff#\Jk
=85	=85	=85	=85	=85	=85	=85	=85	=85	=85	=85
8A\L	.	8.e/L	.	8.cc#\L	8.A\	fri-	8.cc#\	Fri-	4a/	4ee\
8G\	.	.	.	.	.	.	.	.	.	.
.	.	16e/K	.	16cc#\K	16G\	-go-	16cc#\	-go-	.	.
16F#\L	.	8f#/J	.	8dd\J	16F#\LL	-ris	8dd\	-ris	8dd\	8dd\
16D\JJ	.	.	.	.	16D\JJ	.	.	.	.	.
=86	=86	=86	=86	=86	=86	=86	=86	=86	=86	=86
!LO:TX:a:t=P:problem=mixed beam	!	!	!	!	!	!	!	!	!	!
8A\L	.	8e/	.	(16cc#\LL	8A\	e-	(16cc#\LL	e-	4a/	4ee\
.	.	.	.	16dd\JJ)	.	.	16dd\JJ)	.	.	.
8AA/J	.	4cc#\	.	4ee\	8A\	-jus	8ee\	-jus	.	.
8r	.	.	.	.	8r	.	8r	.	8r	8r
=87	=87	=87	=87	=87	=87	=87	=87	=87	=87	=87
!	!	!	!	!	!	!	!	!	!LO:N:vis=0	!LO:N:vis=0
8B\L	5	(16f#/LL	.	8dd\L	8B\	quis	8dd\	quis	2.r	2.r
.	6\	16g#X/J)	.	.	.	.	.	.	.	.
8A\J	3	8a/J	.	8cc#\J	8A\	quis	8cc#\	quis	.	.
8r	.	8r	.	8r	8r	.	8r	.	.	.
=88	=88	=88	=88	=88	=88	=88	=88	=88	=88	=88
!LO:TX:a:t=P:problem=mixed beam	!	!	!	!	!	!	!	!	!	!
8D\L	.	8d/L	.	8b/L	(8D\L	Su-	(8b\L	Su-	.	.
8E\	.	8c#/	.	8a/	8E\J)	.	8a\J)	.	.	.
8EE/J	.	8B/J	.	8g#X/J	8EE/	-sti-	8g#X\	-sti-	.	.
!LO:LB:g=original	!	!	!	!	!	!	!	!	!	!
=89	=89	=89	=89	=89	=89	=89	=89	=89	=89	=89
8AA/L	.	8c#/L	.	8a/L	8AA/	-ne-	8a\	-ne-	4.r	4.r
8AA/J	.	16e/L	.	16e/L	8AA/	-bit	8a\	-bit	.	.
.	.	16c#/J	.	16c#/J	.	.	.	.	.	.
8r	.	8A/J	.	8A/J	8r	.	8r	.	.	.
!	!	!LO:PB:g=original	!	!	!	!	!	!	!	!
=90	=90	=90	=90	=90	=90	=90	=90	=90	=90	=90
8D\L	3	8ff#\L	.	8aa\L	8D/	e-	8a\	e-	8d/L	8d/L
8D\	.	8ff#\	.	8aa\	8D/	-mit-	8a\	-mit-	8d/	8d/
8D\J	6 4	8gg#X\J	.	8bb\J	8D/	-tet	8b\	-tet	8d/J	8d/J
!	!	!	!	!	!	!	!LO:LB:g=original	!	!	!
=91	=91	=91	=91	=91	=91	=91	=91	=91	=91	=91
8D\	6	8aa\L	.	8cccn\L	4D/	Ver-	8ccn\L	Ver-	8d/	8d/
.	7 5_	.	.	.	.	.	.	.	.	.
8r	.	(16ff#\L	.	16aa\L	.	.	(16a\L	.	8r	8r
.	.	16gg\J)	.	16bb\J	.	.	16b\JJ)	.	.	.
8D\	x	[8aa\J	.	8ccc\J	8D/	-bum	8cc\	-bum	8d/	8d/
=92	=92	=92	=92	=92	=92	=92	=92	=92	=92	=92
8G\L	4 2	8aa\]	.	8ccc#\	8G\	Su-	8cc#\	Su-	4d/	4d/
8G\	# 5	4ggn\	.	4bb\	8G\	-um	8b\	-um	.	.
8G\J	.	.	.	.	8r	.	8r	.	8r	8r
=93	=93	=93	=93	=93	=93	=93	=93	=93	=93	=93
!	!	!	!	!	!	!	!	!	!LO:N:vis=0	!LO:N:vis=0
8E\L	#	8gg#X\L	.	8bb\L	8E\	et	8b\	et	2.r	2.r
8E\	.	8gg#\	.	8bb\	8E\	li-	8b\	li-	.	.
8E\J	.	8aa\J	.	8ccc#X\J	8E\	-que-	8cc#X\	-que-	.	.
=94	=94	=94	=94	=94	=94	=94	=94	=94	=94	=94
8E\	7_ #	8bb\L	.	8ddd\L	8.E\	-fa-	8dd\	-fa-	.	.
8r	.	(16gg#X\L	.	16bb\L	.	.	(16b\LL	-ci-	.	.
.	.	16aa\J)	.	16bb\J	16E\	-ci-	16cc#\JJ)	.	.	.
8E\	x	8bb\J	.	[8ddd\J	8E\	-et	8dd\	-et	.	.
=95	=95	=95	=95	=95	=95	=95	=95	=95	=95	=95
8A\L	4 9	8bb\L	.	16ddd\LL]	8A\	e-	8dd\	e-	4.r	4.r
.	.	.	.	16ccc#\	.	.	.	.	.	.
8A\J	# 5	16aa\L	.	16aa\	8A\	-a	8cc#\	-a	.	.
.	.	(16ee\	.	16ee\J	.	.	.	.	.	.
8r	.	16cc#\	.	8a\J	8r	.	8r	.	.	.
.	.	16a\JJ)	.	.	.	.	.	.	.	.
=96	=96	=96	=96	=96	=96	=96	=96	=96	=96	=96
8A\L	.	16e/LL	.	16cc#\LL	4A\	fla-	16cc#\LL	Fla-	8a/L	8ee\L
.	.	16d/	.	16b\	.	.	16b\	.	.	.
8A\	.	16e/	.	16cc#\	.	.	16cc#\	.	8a/	8ee\
.	.	(16c#/	.	16a\	.	.	16a\	.	.	.
8Gn\J	.	16d/)	.	16b\	8G\	-bit	16b\	.	8a/J	8ee\J
.	.	16e/JJ	.	16cc#\JJ	.	.	16cc#\JJ	.	.	.
!	!	!	!	!	!	!	!	!	!LO:LB:g=original	!
=97	=97	=97	=97	=97	=97	=97	=97	=97	=97	=97
8F#\L	6	16f#/LL	.	16dd\LL	(8F#\L	fla-	16dd\LL	.	4dd\	4ff#\
.	.	16g/	.	16ee\	.	.	16ee\	.	.	.
8E\	.	16f#/	.	16dd\	8E\	.	16dd\	.	.	.
.	.	16g/	.	16ee\	.	.	16ee\	.	.	.
8D\J	.	16f#/	.	16dd\	8D\J)	.	16dd\	.	8r	8r
.	.	16g/JJ	.	16ee\JJ	.	.	16ee\JJ	.	.	.
!	!	!	!	!LO:LB:g=original	!LO:LB:g=original	!	!	!	!	!LO:LB:g=original
=98	=98	=98	=98	=98	=98	=98	=98	=98	=98	=98
8A\L	.	16e/LL	.	16cc#\LL	4A\	.	16cc#\LL	.	8a/L	8ee\L
.	.	16d/	.	16b\	.	.	16b\	.	.	.
8A\	.	16e/	.	(16cc#\	.	.	16cc#\	.	8a/	8ee\
.	.	16c#/	.	16a\)	.	.	16a\JJ	.	.	.
8G\J	.	16d/	.	16b\	8G\	-bit	16b\LL	-bit	8a/J	8ee\J
.	.	32e/L	.	16cc#\JJ	.	.	16cc#\JJ	.	.	.
.	.	32f#/JJJ	.	.	.	.	.	.	.	.
=99	=99	=99	=99	=99	=99	=99	=99	=99	=99	=99
8.F#\L	.	8.a/L	.	8.dd\L	8.F#\	Spi-	8.dd\	Spi-	8.dd\L	8.ff#\L
16G\K	8 6	16g/K	.	16ee\K	16G\	-ri-	16ee\	-ri-	16a\K	16ee\K
8A\J	7 5	[8f#/J	.	8dd\J	8G\	-tus	8dd\	-tus	8dd\J	8dd\J
=100	=100	=100	=100	=100	=100	=100	=100	=100	=100	=100
8A\L	6 4	8f#/]	.	8dd\	8A\	e-	8dd\	e-	8a/L	8dd\L
8A\J	5 n	4e/	.	4cc#\	8A\	-jus	8cc#\	-jus	8a/J	8ee\J
8r	.	.	.	.	8r	.	8r	.	8r	8r
!	!	!LO:LB:g=original	!	!	!	!	!LO:LB:g=original	!	!	!
=101	=101	=101	=101	=101	=101	=101	=101	=101	=101	=101
!	!	!	!	!	!	!	!	!	!LO:TX:a:t=P:problem=mixed beam	!
8D\L	.	8a/L	.	8dd\L	8D\	et	8dd\	et	8dd\L	8dd\L
8G\	.	8b/	.	8ee\	8G\	flu-	8ee\	flu-	8.ee\	8.ee\
8A\J	.	8e/J	.	8cc#\J	8A\	-ent	8cc#\	-ent	.	.
.	.	.	.	.	.	.	.	.	16a/Jk	16ee\Jk
!LO:LB:g=original	!	!	!	!	!	!	!	!	!	!
=102	=102	=102	=102	=102	=102	=102	=102	=102	=102	=102
!	!	!	!	!LO:TX:a:t=P:problem=mixed beam	!	!	!	!	!	!
8D/L	.	8f#/L	.	8dd\L	8D\	a-	8dd\	A-	4f#/	4dd\
8DD/J	.	8f#/J	.	8d/J	8D\	-quae	8dd\	-quae	.	.
8r	.	8r	.	8r	8r	.	8r	.	8r	8r
=103	=103	=103	=103	=103	=103	=103	=103	=103	=103	=103
!LO:TX:a:t=P:problem=mixed beam	!	!LO:N:vis=00	!	!LO:N:vis=00	!	!	!	!	!LO:N:vis=00	!LO:N:vis=00
8G\L	.	1.r	.	1.r	8G\	Non	16b\	Qui	1.r	1.r
!	!	!	!	!	!	!	!LO:SIC:l:s=an	!	!	!
.	.	.	.	.	.	.	16b\	a-	.	.
8GG/	.	.	.	.	8G\	fe-	8b\	-nun-	.	.
8G\J	.	.	.	.	8G\	-cit	16b\	-ci-	.	.
.	.	.	.	.	.	.	16b\	-at	.	.
=104	=104	=104	=104	=104	=104	=104	=104	=104	=104	=104
8F#\L	.	.	.	.	8.D\	ta-	4a\	Ver-	.	.
8D\	.	.	.	.	.	.	.	.	.	.
.	.	.	.	.	16F#\	-li-	.	.	.	.
8G\J	.	.	.	.	8G\	-ter	8b\	-bum	.	.
=105	=105	=105	=105	=105	=105	=105	=105	=105	=105	=105
4E\	-6	.	.	.	8.G\	Om-	(8.ccn\L	Su-	.	.
.	.	.	.	.	16G\	-ni	16b\Jk)	.	.	.
16F#\LL	.	.	.	.	16A\	na-	(16cc\LL	-um	.	.
16D\JJ	.	.	.	.	16F#\	-ti-	16a\JJ)	.	.	.
=106	=106	=106	=106	=106	=106	=106	=106	=106	=106	=106
!LO:TX:a:t=P:problem=mixed beam	!	!	!	!	!	!	!	!	!	!
8G\L	.	.	.	.	8G\	-o-	8b\	Ja-	.	.
!	!	!	!	!	!LO:SIC:l:s=mo	!	!	!	!	!
8GG/	.	.	.	.	8G\	-nis	8b\	-cob	.	.
8G\J	.	.	.	.	16B\	et	16r	.	.	.
.	.	.	.	.	16G\	ju-	16b\	ju-	.	.
=107	=107	=107	=107	=107	=107	=107	=107	=107	=107	=107
!	!	!LO:N:vis=00	!	!LO:N:vis=00	!	!	!	!	!LO:N:vis=00	!LO:N:vis=00
8D\L	.	1.r	.	1.r	(16F#\LL	-di-	(16a\LL	-sti-	1.r	1.r
.	.	.	.	.	16E\JJ)	.	16g\JJ)	.	.	.
8D\	.	.	.	.	(16F#\LL	-ci-	(16a\LL	-ti-	.	.
.	.	.	.	.	16G\JJ)	.	16b\JJ)	.	.	.
8D\J	.	.	.	.	(16F#\LL	-a	(16a\LL	-as	.	.
.	.	.	.	.	16G\JJ)	.	16b\JJ)	.	.	.
=108	=108	=108	=108	=108	=108	=108	=108	=108	=108	=108
8E/L	6	.	.	.	16E\	su-	4g\	et	.	.
.	.	.	.	.	16E\	-a	.	.	.	.
8C#/	.	.	.	.	8E\	non	.	.	.	.
8AA/J	.	.	.	.	8E\	ma-	8g\	ju-	.	.
!	!	!	!	!	!LO:LB:g=original	!	!	!	!	!
=109	=109	=109	=109	=109	=109	=109	=109	=109	=109	=109
4D\	.	.	.	.	(8.D\L	-ni-	8.f#/	-di-	.	.
.	.	.	.	.	16E\Jk)	.	16g/	-ci-	.	.
8r	.	.	.	.	(16F#\LL	-fe-	(16a\	-a	.	.
.	.	.	.	.	16G\JJ)	.	16b\)	.	.	.
!	!	!	!	!	!	!	!LO:LB:g=original	!	!	!
=110	=110	=110	=110	=110	=110	=110	=110	=110	=110	=110
8F#\L	.	.	.	.	4A\	-sta-	4ccn\	Su-	.	.
8D\	.	.	.	.	.	.	.	.	.	.
8G\J	.	.	.	.	8G\	-vit	8b\	-a	.	.
=111	=111	=111	=111	=111	=111	=111	=111	=111	=111	=111
!	!	!LO:N:vis=0	!	!LO:N:vis=0	!	!	!LO:SIC:l:s=Is	!	!LO:N:vis=00	!LO:N:vis=00
8Cn/L	6 5	2.r	.	2.r	(4G\	e-	4a\	Js-	1.r	1.r
8D/	.	.	.	.	.	.	.	.	.	.
8DD/J	x 4	.	.	.	8F#\)	.	8a\	-ra-	.	.
.	x #	.	.	.	.	.	.	.	.	.
=112	=112	=112	=112	=112	=112	=112	=112	=112	=112	=112
4GG/	.	.	.	.	4G\	-jus	4g\	-el	.	.
8r	.	.	.	.	8r	.	8r	.	.	.
=113	=113	=113	=113	=113	=113	=113	=113	=113	=113	=113
!	!	!	!	!	!LO:TX:a:t=7	!	!	!	!	!
!	!	!	!	!	!LO:N:vis=00	!	!	!	!	!
8.D\L	.	8.d/L	.	8.d/L	1.r	.	8.a\	Glo-	.	.
16E\L	.	16e/L	.	16e/L	.	.	16a\	-ri-	.	.
16F#\	.	16f#/	.	16f#/	.	.	8dd\	-a	.	.
16G\JJ	.	16g/JJ	.	16g/JJ	.	.	.	.	.	.
=114	=114	=114	=114	=114	=114	=114	=114	=114	=114	=114
8A\L	.	(8a/L	.	8a/L	.	.	4cc#X\	Pa-	.	.
8G\	.	8g/	.	8g/	.	.	.	.	.	.
8F#\J	.	8f#/J)	.	8f#/J	.	.	8dd\	-tri	.	.
!LO:LB:g=original	!	!	!	!	!	!	!	!	!	!
=115	=115	=115	=115	=115	=115	=115	=115	=115	=115	=115
!	!	!	!	!	!	!	!	!	!LO:N:vis=00	!LO:N:vis=00
8.G\L	.	8.g/L	.	8.g/L	.	.	8.ee\	Glo-	1.r	1.r
16G\K	.	16g/K	.	16g/K	.	.	16ee\	-ri-	.	.
8F#\J	.	8f#/J	.	8f#/J	.	.	8dd\	-a	.	.
=116	=116	=116	=116	=116	=116	=116	=116	=116	=116	=116
4A\	.	4a/	.	4a/	.	.	8.cc#\	Fi-	.	.
.	.	.	.	.	.	.	16b\	-li-	.	.
8AA/	.	8A/	.	8A/	.	.	8a\	-o	.	.
=117	=117	=117	=117	=117	=117	=117	=117	=117	=117	=117
!	!	!	!	!	!LO:N:vis=0	!	!	!	!	!
8r	.	8r	.	8r	2.r	.	8r	.	.	.
8F#\L	.	8f#/L	.	8f#/L	.	.	8dd\	et	.	.
8F#\J	.	8f#/J	.	8f#/J	.	.	8cc#\	Spi-	.	.
=118	=118	=118	=118	=118	=118	=118	=118	=118	=118	=118
8G\L	.	4g/	.	4g/	.	.	(8b\L	-ri-	.	.
8F#\	.	.	.	.	.	.	8cc#\J)	.	.	.
8F#\J	.	8f#/	.	8f#/	.	.	8dd\	-tu-	.	.
=119	=119	=119	=119	=119	=119	=119	=119	=119	=119	=119
!LO:TX:a:t=P:problem=mixed beam	!	!	!	!	!	!	!	!	!	!
8G\L	6 5	8g/L	.	8g/L	4.r	.	8dd\	-i	4.r	4.r
8A\	4	8a/	.	8a/	.	.	(8dd\L	San-	.	.
8AA/J	3	8A/J	.	8A/J	.	.	8cc#\J)	.	.	.
=120	=120	=120	=120	=120	=120	=120	=120	=120	=120	=120
!	!	!	!	!LO:TX:a:t=P:problem=mixed beam	!	!	!	!	!	!
8D\L	.	8d/L	.	8d/L	8r	.	8dd\	-cto	8r	8r
8F#\	.	8f#/	.	8dd\	8F#\	Si-	8dd\	Si-	8f#/L	8dd\L
!	!	!	!	!	!	!	!LO:LB:g=original	!	!	!
8D\J	.	8f#/J	.	[>8dd\J	8D\	-cut	8dd\	-cut	8f#/J	8dd\J
=121	=121	=121	=121	=121	=121	=121	=121	=121	=121	=121
!LO:TX:a:t=P:problem=mixed beam	!	!	!	!	!	!	!	!	!	!
8A\L	4 9	4e/	.	8dd\L]	4A\	e-	8dd\L	e-	4a/	4ee\
8A\	#_ 5_	.	.	16cc#\L	.	.	(16cc#\L	.	.	.
.	.	.	.	16dd\J	.	.	16dd\JJ)	.	.	.
8AA/J	x	8g/	.	[8ee\J	8AA/	-rat	8ee\	-rat	8r	8r
=122	=122	=122	=122	=122	=122	=122	=122	=122	=122	=122
!	!	!	!	!	!	!	!	!	!LO:N:vis=00	!LO:N:vis=00
8D\L	4 9	8g/L	.	8ee\L]	4D\	in	8ee\L	in	1.r	1.r
8D\	# 5	16f#/L	.	16dd\L	.	.	(16dd\L	.	.	.
.	x 6	16g/J	.	16ee\J	.	.	16ee\JJ)	.	.	.
8D\J	.	8a/J	.	[8ff#\J	8D\	prin-	8ff#\	prin-	.	.
!	!	!	!	!LO:LB:g=original	!	!	!	!	!	!
=123	=123	=123	=123	=123	=123	=123	=123	=123	=123	=123
8E\L	4 9	8.a/L	.	8ff#\L]	8.E\	-ci-	8.ff#\	-ci-	.	.
8E\	# 5	.	.	8ee\	.	.	.	.	.	.
.	6	16g/K	.	.	16E\	-pi-	16ee\	-pi-	.	.
8C#\J	.	8g/J	.	[8ee\J	8C#\	-o	8dd\	-o	.	.
!	!	!LO:LB:g=original	!	!	!	!	!	!	!	!
=124	=124	=124	=124	=124	=124	=124	=124	=124	=124	=124
8D\L	4 9	8g/	.	8ee\]	8D\	et	8ee\	et	.	.
8D\	# 5	[4f#/	.	[4dd\	8D\	nunc	8dd\	nunc	.	.
.	6	.	.	.	.	.	.	.	.	.
8F#\J	.	.	.	.	8F#\	et	8dd\	et	.	.
=125	=125	=125	=125	=125	=125	=125	=125	=125	=125	=125
8A\L	.	8f#/]	.	8dd\]	8A\	sem-	8dd\	Sem-	.	.
8A\J	.	4e/	.	4cc#\	8A\	-per	8cc#\	-per	.	.
8r	.	.	.	.	8r	.	8r	.	.	.
=126	=126	=126	=126	=126	=126	=126	=126	=126	=126	=126
8r	.	8r	.	8r	8r	.	8r	.	8r	8r
8A\L	.	8cc#\L	.	8ee\L	8A\	et	8ee\	et	8a/L	8ee\L
8d\J	.	8dd\J	.	8ff#\J	8d\	in	8ff#\	ni	8a/J	8ff#\J
=127	=127	=127	=127	=127	=127	=127	=127	=127	=127	=127
8.B\L	6	8.dd\L	.	4gg\	8.B\	Sae-	8.gg\	Sae-	4dd\	4gg\
16c#\K	.	16ee\K	.	.	16c#\	-cu-	16gg\	-cu-	.	.
8d\J	.	8dd\J	.	8ff#\	8d\	-la	8ff#\	-la	8dd\	8ff#\
!LO:LB:g=original	!	!	!	!	!	!	!	!	!	!
=128	=128	=128	=128	=128	=128	=128	=128	=128	=128	=128
4A\	.	4cc#\	.	4ee\	4A\	Sae-	4ee\	Sae-	4a/	4ee\
8B\	.	8b\	.	8dd\	8c#\	-cu-	8dd\	-cu-	8dd\	8dd\
=129	=129	=129	=129	=129	=129	=129	=129	=129	=129	=129
8A\L	.	8.cc#\L	.	8.cc#\L	8A\L	-lo-	4cc#\	-lo-	4a/	4ee\
8G\	.	.	.	.	8G\J	.	.	.	.	.
.	.	16a\K	.	16a\K	.	.	.	.	.	.
8F#\J	6	8dd\J	.	8dd\J	8F#\	-ru(m)	8dd\	-rum	8dd\	8ff#\
!	!	!	!	!	!	!	!LO:LB:g=original	!	!	!
=130	=130	=130	=130	=130	=130	=130	=130	=130	=130	=130
!LO:TX:a:t=P:problem=mixed beam	!	!	!	!	!LO:TX:a:t=P:problem=mixed beam	!	!	!	!	!
8G\L	.	8dd\L	.	16ddd\LL	8G\L	A-	(4dd\	a-	8dd\	8ff#\
.	.	.	.	16ee\J	.	.	.	.	.	.
8A\	.	8.dd\	.	8dd\	8A\	.	.	.	4a/	4ee\
8AA/J	.	.	.	8cc#\J	8AA/J	.	8cc#\)	.	.	.
.	.	16cc#\Jk	.	.	.	.	.	.	.	.
=131	=131	=131	=131	=131	=131	=131	=131	=131	=131	=131
8D\	.	8dd\	.	8dd\	8D\	-men	8dd\	-men	8f#/	8dd\
8r	.	8r	.	8r	8r	.	8r	.	8r	8r
8A\	.	8cc#\	.	8ee\	8A\	A-	8cc#\	A-	8a/	8ee\
=132	=132	=132	=132	=132	=132	=132	=132	=132	=132	=132
4D\	.	4dd\	.	4ff#\	4D;\	-men	4dd\	-men	4f#/	4dd\
8r	.	8r	.	8r	8r	.	8r	.	8r	8r
==	==	==	==	==	==	==	==	==	==	==
*-	*-	*-	*-	*-	*-	*-	*-	*-	*-	*-
!!!system-decoration: [(s1,s2)][(s3,s4)][(s5,s6)][(s7)]
!!!RDF**kern: > = above
!!!RDF**kern: < = below
!!!RDF**dynam: p = piano
!!!EED: Leszek Kubiak
!!!EEV: 2020-11-05
!!!ENC: Kamil Watkowski
!!!END: 2020-05-23
!!!YEC: Copyright 2022 Narodowy Instytut Fryderyka Chopina (https://polishscores.org)
!!!YEM: License CC-BY-4.0 (https://creativecommons.org/licenses/by/4.0)
